assets/img/braze_icons/toggle-02-right.svg

<svg fill="none" height="24" viewBox="0 0 24 24" width="24" xmlns="http://www.w3.org/2000/svg"><path clip-rule="evenodd" d="m17 6c3.3137 0 6 2.68629 6 6 0 3.3137-2.6863 6-6 6-1.2267 0-2.3675-.3682-3.3178-1h-7.6822c-2.76142 0-5-2.2386-5-5 0-2.76142 2.23857-5 5-5h7.6822c.9503-.63185 2.0911-1 3.3178-1zm-5.1973 3c-.5105.88252-.8027 1.9071-.8027 3s.2922 2.1175.8027 3h-5.8027c-1.65685 0-3-1.3431-3-3s1.34315-3 3-3z" fill="#801ed7" fill-rule="evenodd"/></svg>

<svg width="24" height="24" viewBox="0 0 24 24" fill="none" xmlns="http://www.w3.org/2000/svg">
<path fill-rule="evenodd" clip-rule="evenodd" d="M17 6C20.3137 6 23 8.68629 23 12C23 15.3137 20.3137 18 17 18C15.7733 18 14.6325 17.6318 13.6822 17H6C3.23858 17 1 14.7614 1 12C1 9.23858 3.23857 7 6 7H13.6822C14.6325 6.36815 15.7733 6 17 6ZM11.8027 9C11.2922 9.88252 11 10.9071 11 12C11 13.0929 11.2922 14.1175 11.8027 15H6C4.34315 15 3 13.6569 3 12C3 10.3431 4.34315 9 6 9H11.8027Z" fill="#801ED7"/>
</svg>
